js-exam/assets/images/instagram.svg

<svg width="40" height="40" viewBox="0 0 40 40" fill="none" xmlns="http://www.w3.org/2000/svg">
<path d="M20 16.4062C21.9688 16.4062 23.5938 18.0312 23.5938 20C23.5938 22 21.9688 23.5938 20 23.5938C18 23.5938 16.4062 22 16.4062 20C16.4062 18.0312 18 16.4062 20 16.4062ZM20 22.3438C21.2812 22.3438 22.3125 21.3125 22.3125 20C22.3125 18.7188 21.2812 17.6875 20 17.6875C18.6875 17.6875 17.6562 18.7188 17.6562 20C17.6562 21.3125 18.7188 22.3438 20 22.3438ZM24.5625 16.2812C24.5625 16.75 24.1875 17.125 23.7188 17.125C23.25 17.125 22.875 16.75 22.875 16.2812C22.875 15.8125 23.25 15.4375 23.7188 15.4375C24.1875 15.4375 24.5625 15.8125 24.5625 16.2812ZM26.9375 17.125C27 18.2812 27 21.75 26.9375 22.9062C26.875 24.0312 26.625 25 25.8125 25.8438C25 26.6562 24 26.9062 22.875 26.9688C21.7188 27.0312 18.25 27.0312 17.0938 26.9688C15.9688 26.9062 15 26.6562 14.1562 25.8438C13.3438 25 13.0938 24.0312 13.0312 22.9062C12.9688 21.75 12.9688 18.2812 13.0312 17.125C13.0938 16 13.3438 15 14.1562 14.1875C15 13.375 15.9688 13.125 17.0938 13.0625C18.25 13 21.7188 13 22.875 13.0625C24 13.125 25 13.375 25.8125 14.1875C26.625 15 26.875 16 26.9375 17.125ZM25.4375 24.125C25.8125 23.2188 25.7188 21.0312 25.7188 20C25.7188 19 25.8125 16.8125 25.4375 15.875C25.1875 15.2812 24.7188 14.7812 24.125 14.5625C23.1875 14.1875 21 14.2812 20 14.2812C18.9688 14.2812 16.7812 14.1875 15.875 14.5625C15.25 14.8125 14.7812 15.2812 14.5312 15.875C14.1562 16.8125 14.25 19 14.25 20C14.25 21.0312 14.1562 23.2188 14.5312 24.125C14.7812 24.75 15.25 25.2188 15.875 25.4688C16.7812 25.8438 18.9688 25.75 20 25.75C21 25.75 23.1875 25.8438 24.125 25.4688C24.7188 25.2188 25.2188 24.75 25.4375 24.125Z" fill="white"/>
<circle opacity="0.4" cx="20" cy="20" r="19.5" stroke="white"/>
</svg>

<svg width="40" height="40" fill="none" xmlns="http://www.w3.org/2000/svg"><path d="M20 16.406c1.969 0 3.594 1.625 3.594 3.594 0 2-1.625 3.594-3.594 3.594-2 0-3.594-1.594-3.594-3.594A3.594 3.594 0 0 1 20 16.406Zm0 5.938c1.281 0 2.313-1.032 2.313-2.344A2.307 2.307 0 0 0 20 17.687c-1.313 0-2.344 1.032-2.344 2.313A2.34 2.34 0 0 0 20 22.344Zm4.563-6.063a.84.84 0 0 1-.844.844.84.84 0 0 1-.844-.844.84.84 0 0 1 .844-.843.84.84 0 0 1 .843.843Zm2.375.844c.062 1.156.062 4.625 0 5.781-.063 1.125-.313 2.094-1.125 2.938-.813.812-1.813 1.062-2.938 1.125-1.156.062-4.625.062-5.781 0-1.125-.063-2.094-.313-2.938-1.125-.812-.844-1.062-1.813-1.125-2.938-.062-1.156-.062-4.625 0-5.781.063-1.125.313-2.125 1.125-2.938.844-.812 1.813-1.062 2.938-1.124 1.156-.063 4.625-.063 5.781 0 1.125.062 2.125.312 2.938 1.124.812.813 1.062 1.813 1.125 2.938Zm-1.5 7c.375-.906.28-3.094.28-4.125 0-1 .095-3.188-.28-4.125-.25-.594-.72-1.094-1.313-1.313-.938-.374-3.125-.28-4.125-.28-1.031 0-3.219-.095-4.125.28a2.41 2.41 0 0 0-1.344 1.313c-.375.938-.281 3.125-.281 4.125 0 1.031-.094 3.219.281 4.125a2.37 2.37 0 0 0 1.344 1.344c.906.375 3.094.281 4.125.281 1 0 3.188.094 4.125-.281.594-.25 1.094-.719 1.313-1.344Z" fill="#fff"/><circle opacity=".4" cx="20" cy="20" r="19.5" stroke="#fff"/></svg>
